packages/icons/svgs/solid/Source=grip.svg

<svg width="12" height="12" viewBox="0 0 12 12" fill="none" xmlns="http://www.w3.org/2000/svg">
<path d="M4.625 0H2.375C2.16789 0 2 0.167893 2 0.375V2.625C2 2.83211 2.16789 3 2.375 3H4.625C4.83211 3 5 2.83211 5 2.625V0.375C5 0.167893 4.83211 0 4.625 0Z" fill="black"/>
<path d="M9.625 0H7.375C7.16789 0 7 0.167893 7 0.375V2.625C7 2.83211 7.16789 3 7.375 3H9.625C9.83211 3 10 2.83211 10 2.625V0.375C10 0.167893 9.83211 0 9.625 0Z" fill="black"/>
<path d="M4.625 4.5H2.375C2.16789 4.5 2 4.66789 2 4.875V7.125C2 7.33211 2.16789 7.5 2.375 7.5H4.625C4.83211 7.5 5 7.33211 5 7.125V4.875C5 4.66789 4.83211 4.5 4.625 4.5Z" fill="black"/>
<path d="M9.625 4.5H7.375C7.16789 4.5 7 4.66789 7 4.875V7.125C7 7.33211 7.16789 7.5 7.375 7.5H9.625C9.83211 7.5 10 7.33211 10 7.125V4.875C10 4.66789 9.83211 4.5 9.625 4.5Z" fill="black"/>
<path d="M4.625 9H2.375C2.16789 9 2 9.16789 2 9.375V11.625C2 11.8321 2.16789 12 2.375 12H4.625C4.83211 12 5 11.8321 5 11.625V9.375C5 9.16789 4.83211 9 4.625 9Z" fill="black"/>
<path d="M9.625 9H7.375C7.16789 9 7 9.16789 7 9.375V11.625C7 11.8321 7.16789 12 7.375 12H9.625C9.83211 12 10 11.8321 10 11.625V9.375C10 9.16789 9.83211 9 9.625 9Z" fill="black"/>
</svg>

<svg xmlns="http://www.w3.org/2000/svg" width="12" height="12" viewBox="0 0 12 12"><path d="M4.625 0h-2.25A.375.375 0 0 0 2 .375v2.25c0 .207.168.375.375.375h2.25A.375.375 0 0 0 5 2.625V.375A.375.375 0 0 0 4.625 0Zm5 0h-2.25A.375.375 0 0 0 7 .375v2.25c0 .207.168.375.375.375h2.25A.375.375 0 0 0 10 2.625V.375A.375.375 0 0 0 9.625 0Zm-5 4.5h-2.25A.375.375 0 0 0 2 4.875v2.25c0 .207.168.375.375.375h2.25A.375.375 0 0 0 5 7.125v-2.25a.375.375 0 0 0-.375-.375Zm5 0h-2.25A.375.375 0 0 0 7 4.875v2.25c0 .207.168.375.375.375h2.25A.375.375 0 0 0 10 7.125v-2.25a.375.375 0 0 0-.375-.375Zm-5 4.5h-2.25A.375.375 0 0 0 2 9.375v2.25c0 .207.168.375.375.375h2.25A.375.375 0 0 0 5 11.625v-2.25A.375.375 0 0 0 4.625 9Zm5 0h-2.25A.375.375 0 0 0 7 9.375v2.25c0 .207.168.375.375.375h2.25a.375.375 0 0 0 .375-.375v-2.25A.375.375 0 0 0 9.625 9Z"/></svg>
